remix/Device/sd-card-mini-line.svg

<svg viewBox="0 0 24 24" fill="currentColor" xmlns="http://www.w3.org/2000/svg"><path d="M8 4V9.79335C8 10.455 7.73768 11.0897 7.27052 11.5584L6 12.8329V20H18V4H8ZM7 2H19C19.5523 2 20 2.44772 20 3V21C20 21.5523 19.5523 22 19 22H5C4.44772 22 4 21.5523 4 21V12.4196C4 12.1549 4.10493 11.901 4.29179 11.7135L5.8541 10.1464C5.94754 10.0526 6 9.92569 6 9.79335V3C6 2.44772 6.44772 2 7 2ZM15 5H17V9H15V5ZM12 5H14V9H12V5ZM9 5H11V9H9V5Z"/></svg>

<svg viewBox="0 0 24 24" xmlns="http://www.w3.org/2000/svg"><path fill="none" d="M0 0h24v24H0Z"/><path d="M8 4v5.79 0c-.01.66-.27 1.29-.73 1.76L6 12.82v7.167h12v-16H8ZM7 2h12v0c.55 0 1 .44 1 1v18 0c0 .55-.45 1-1 1H5v0c-.56 0-1-.45-1-1v-8.58 0c0-.27.1-.52.29-.71l1.56-1.57v0c.09-.1.14-.23.14-.36v-6.8 0c0-.56.44-1 1-1Zm8 3h2v4h-2V5Zm-3 0h2v4h-2V5ZM9 5h2v4H9V5Z"/></svg>
